X:1
T:Title
%%score { ( 1 2 ) | ( 3 4 ) }
L:1/8
Q:1/4=78
M:6/8
K:C
V:1 treble nm="Grand Piano"
V:2 treble 
V:3 bass 
V:4 bass 
V:1
 GAc A<cA | B2 B [DF]3 | [B,D]>EF [FB]2 [FA] | [EG]6 | ^GGE B2 E | [Ec]2 [DB] [CA]2 [^CGA] | %6
w: C.~Austin~Miles * * * * *||||||
 [D^Fd][Fd][Fc] [FA]2 d | d2 B A2 G | GAc A<cA | .[FB]3 F2 F | D>EF [FB]2 A | ^G6 | A>^GA c>BA | %13
w: |||||||
 G^FG c2 B/A/ | G>AG [B,D]2 A | .[EG]3 z3 | ^F-[F-B][Fc] d2 e | [Ec]6 |] %18
w: |||||
V:2
 E6 | F3 z3 | x6 | .G,3 z2 C | x6 | x6 | x6 | x6 | [G,E-]3 E3 | z3 [G,B,]3 | x6 | z3 D3 | x6 | x6 | %14
 x6 | G,2- [G,E] [CEG]2 .[CGc] | .[CA]3 z3 | x6 |] %18
V:3
 [C,G,]3 [G,,G,]3 | [D,G,]3 [G,,G,]3 | z z/ C/D G,,A,,B,, | z CA, .G,3 | DDD D2 D | %5
 [A,,A,]2 [E,^G,] A,2 E, | z A,D z2[K:treble] ^F | [G,F]2- [G,-DF-] [G,-CF-]2 [G,B,F] | %8
 C,3 [G,,G,]3 | z2[K:treble] B[K:bass] G,,3 | B,>CD z2 F | E3 z3 | %12
 [F,A,C]3 [^F,_E]->[F,-B,E-][F,CE] | E_E=E [^G,_E]3 | [G,CE]3 z2 F | z2 C C,2 z/[K:treble] B/ | %16
 z B,A, [G,B,F]3 | [C,G,C]6 |] %18
V:4
 x6 | x6 | [G,,G,]3 G,3 | C,6 | [E,B,]3 [E,^G,]3 | x6 | D,3 [D,C]3[K:treble] | .B,3 z3 | x6 | %9
 [D,G,]3[K:treble][K:bass] z3 | [D,G,]3 [G,,G,]3 | [E,B,]6 | z3 .A,3 | [G,C-]3 C3 | z3 [G,,G,]3 | %15
 C,3 z2 E,[K:treble] | D,3 z3 | x6 |] %18

